app/dist/common/images/helios-technologies.svg

<svg height="18" viewBox="0 0 18 18" width="18" xmlns="http://www.w3.org/2000/svg"><path d="m0 0h18v18h-18z" fill="#f0f3fa"/><path d="m9 14a4.9 4.9 0 0 1 -4.62-3.07 5.05 5.05 0 0 1 2.72-6.57 4.9 4.9 0 0 1 1.9-.36z" fill="#5e99c8"/><path d="m9 4h.01c1.33.02 2.6.55 3.53 1.49a4.97 4.97 0 0 1 -3.54 8.51z" fill="#243f60"/><path d="m7.5 7v1.5h3v-1.5h1.5v4.56h-1.5v-1.56h-3v1.56h-1.5v-4.56z" fill="#f0f3fa"/></svg>

<!-- by TradingView --><svg width="18" height="18" viewBox="0 0 18 18" xmlns="http://www.w3.org/2000/svg"><path fill="#F0F3FA" d="M0 0h18v18H0z"/><path d="M9 14a4.9 4.9 0 0 1-4.62-3.07A5.05 5.05 0 0 1 7.1 4.36 4.9 4.9 0 0 1 9 4v10Z" fill="#5E99C8"/><path d="M9 4h.01c1.33.02 2.6.55 3.53 1.49A4.97 4.97 0 0 1 9 14V4Z" fill="#243F60"/><path d="M7.5 7v1.5h3V7H12v4.56h-1.5V10h-3v1.56H6V7h1.5Z" fill="#F0F3FA"/></svg>
